X:144
T:The Windmill
Z:robin.beech@mcgill.ca
S:Victoria Bar, Glasgow
D:Danu, All Things Considered
M:4/4
L:1/8
K:D
ddfd ceAc | dBGB AFDE | FBBB ABdf | eAce afge |
ddfd ceAc | dBGB AFDF | GFGB ABdf |1 gece dABc :|2 gece defg |:
aAAA a3g | fAAA dAFA | B2AB G3F | E2F2 GABc |
dAAA e3A | fddc dfed | cdef gagf | gece defg :|
